icons/magic-line.svg

<svg viewBox="0 0 24 24" fill="currentColor" xmlns="http://www.w3.org/2000/svg">
    <path d="M15.1986 9.94447C14.7649 9.5337 14.4859 8.98613 14.4085 8.39384L14.0056 5.31138L11.275 6.79724C10.7503 7.08274 10.1433 7.17888 9.55608 7.06948L6.49998 6.50015L7.06931 9.55625C7.17871 10.1435 7.08257 10.7505 6.79707 11.2751L5.31121 14.0057L8.39367 14.4086C8.98596 14.4861 9.53353 14.7651 9.94431 15.1987L12.0821 17.4557L13.4178 14.6486C13.6745 14.1092 14.109 13.6747 14.6484 13.418L17.4555 12.0823L15.1986 9.94447ZM15.2238 15.5079L13.0111 20.1581C12.8687 20.4573 12.5107 20.5844 12.2115 20.442C12.1448 20.4103 12.0845 20.3665 12.0337 20.3129L8.49229 16.5741C8.39749 16.474 8.27113 16.4096 8.13445 16.3918L3.02816 15.7243C2.69958 15.6814 2.46804 15.3802 2.51099 15.0516C2.52056 14.9784 2.54359 14.9075 2.5789 14.8426L5.04031 10.3192C5.1062 10.1981 5.12839 10.058 5.10314 9.92253L4.16 4.85991C4.09931 4.53414 4.3142 4.22086 4.63997 4.16017C4.7126 4.14664 4.78711 4.14664 4.85974 4.16017L9.92237 5.10331C10.0579 5.12855 10.198 5.10637 10.319 5.04048L14.8424 2.57907C15.1335 2.42068 15.4979 2.52825 15.6562 2.81931C15.6916 2.88421 15.7146 2.95507 15.7241 3.02833L16.3916 8.13462C16.4095 8.2713 16.4739 8.39766 16.5739 8.49245L20.3127 12.0338C20.5533 12.2617 20.5636 12.6415 20.3357 12.8821C20.2849 12.9357 20.2246 12.9795 20.1579 13.0112L15.5078 15.224C15.3833 15.2832 15.283 15.3835 15.2238 15.5079ZM16.0206 17.435L17.4348 16.0208L21.6775 20.2634L20.2633 21.6776L16.0206 17.435Z"/>
</svg>

<svg xmlns="http://www.w3.org/2000/svg" viewBox="0 0 24 24">
    <g>
        <path fill="none" d="M0 0h24v24H0z"/>
        <path d="M15.199 9.945a2.6 2.6 0 0 1-.79-1.551l-.403-3.083-2.73 1.486a2.6 2.6 0 0 1-1.72.273L6.5 6.5l.57 3.056a2.6 2.6 0 0 1-.273 1.72l-1.486 2.73 3.083.403a2.6 2.6 0 0 1 1.55.79l2.138 2.257 1.336-2.807a2.6 2.6 0 0 1 1.23-1.231l2.808-1.336-2.257-2.137zm.025 5.563l-2.213 4.65a.6.6 0 0 1-.977.155l-3.542-3.739a.6.6 0 0 0-.357-.182l-5.107-.668a.6.6 0 0 1-.449-.881l2.462-4.524a.6.6 0 0 0 .062-.396L4.16 4.86a.6.6 0 0 1 .7-.7l5.063.943a.6.6 0 0 0 .396-.062l4.524-2.462a.6.6 0 0 1 .881.45l.668 5.106a.6.6 0 0 0 .182.357l3.739 3.542a.6.6 0 0 1-.155.977l-4.65 2.213a.6.6 0 0 0-.284.284zm.797 1.927l1.414-1.414 4.243 4.242-1.415 1.415-4.242-4.243z"/>
    </g>
</svg>
